**kern	**kern
*staff1	*staff1
*head1[head1]	*head1[head1]
*solo1[solo1]	*solo1[solo1]
*solo2[solo2]	*solo2[solo2]
*solo3[solo3]	*solo3[solo3]
=1-	=1-	!!Head
*clefG2	*clefG2
*k[]	*k[]
*C:	*C:
*M4/4	*M4/4
8r	.
*>head1	*>head1
{[8B-/L	.
8B-/]	.
16e-/L	.
16g-/JJ	.
8a-/L	.
8gn/	.
8d-/	.
8Bn/J	.
=2	=2
8c/L	1C:dom
[8g/	.
8g/]	.
[8a/J	.
8a/L]	.
8e/	.
8f/	.
8g/J	.
=3||	=3||
8e/L	1C:dom
8d/J	.
8r	.
8g/	.
8dd/L	.
8cc/	.
8a/	.
[8g/J	.
=4	=4
8g/L]	1G:min
8a/	.
8b-/	.
8a/J	.
4g/	.
8r	.
8dd-\	.
=5	=5
8cc\L	1C:dom
8a\	.
8b-\	.
8cc\J	.
8a/L	.
8g/J	.
8r	.
16cc\LL	.
16b-\JJ	.
=6	=6
4a/}	1F:dom
4r	.
{8b-/L	.
8g-/	.
8e-/	.
8c/J	.
=7	=7
8a-/L	1F:dom
8f/	.
8g-/	.
8gn/J	.
8A/L	.
8B-/	.
8f/	.
8e-/J	.
=8	=8
4e/	1C:dom
8r	.
8f/	.
8g/L	.
8f/	.
8e/	.
8d/J	.
=9	=9
6g/	1E:min
6a/	.
6b-\	.
6a/	.
6e/	.
6A/	.
=10	=10
8A-/L	1D:min
8d/	.
8c/	.
8An/J	.
4.e/	.
8d/	.
=11	=11
4g/}	1G:dom
4r	.
4r	.
{[4c/	.
=12	=12
4c/]	1C:dom
[4d/	.
8d/L]	.
8f/J	.
8r	.
8a/	.
=13	=13
8g/L	2D:min
8e/J	.
8r	.
8c/	.
8f/L	2G:dom
8e/	.
8c/	.
8c/J}	.
=14	=14	!!Chorus 1
2r	1C:dom
8r	.
*>solo1	*>solo1
{8c/L	.
8f/	.
8e/J	.
=15||	=15||
8c/L	1C:dom
[8c/J	.
4c/]}	.
2r	.
=16	=16
4r	1C:dom
8r	.
{24e/LL	.
24f/	.
24f#/JJ	.
8g/L	.
8fn/	.
8e/	.
8d/J	.
=17	=17
8c/L	2G:min
8A/J	.
12B-/L	.
12d/	.
12a/J	.
8cc/L	2C:dom
8a-/	.
8e/	.
8c/J	.
=18	=18
8g/L	1F:dom
8f/	.
8c/	.
8A/J	.
8d/L	.
[8e-/J	.
4e-/]}	.
=19	=19
1r	1F:dom
=20	=20
8r	1C:dom
{8d#/	.
16e/LL	.
16g/	.
16b/	.
16dd/JJ	.
8gg\	.
16r	.
16dd\	.
8r	.
[8dd-\	.
=21	=21
8dd-\L]	1A:dom
8gg\J}	.
4r	.
2r	.
=22	=22
4r	1D:dom
{8ff\L	.
16ee\L	.
16ee-\JJ	.
8dd\L	.
8dd-\	.
8cc\	.
8b\J	.
=23	=23
8b-\	1G:dom
24bn\LL	.
24b-\	.
24a\JJ	.
8a-/L	.
8f/J	.
8e-/L	.
8c/J	.
24g/LL	.
24a-/	.
24g/JJ	.
8f/	.
=24	=24
8e/L	1C:dom
8G/	.
8A/	.
[8c/J	.
4c/]}	.
4r	.
=25	=25
2r	2D:min
8r	2G:dom
*>solo2	*>solo2
{8e/L	.
8f/	.
8f#/J	.
=26	=26	!!Chorus 2
4g/	1C:dom
8cc\L	.
8b-\J	.
8a/L	.
16g/L	.
16f/JJ	.
8r	.
8c/	.
=27	=27
4g/	1F:dom
8r	.
8c/	.
8f/L	.
8g/	.
8e/	.
[8c/J	.
=28	=28
4c/]}	1C:dom
4r	.
2r	.
=29	=29
2r	1C:dom
{8d/L	.
8c/	.
8B-/	.
16c/L	.
16B-/JJ	.
=30	=30
8A/L	1F:dom
8c/	.
8d/	.
8c/J	.
24g/LL	.
24a/	.
24g/JJ	.
8f/L	.
8c/	.
8A/J	.
=31	=31
8d/L	1F:dom
8e-/	.
8c/	.
8A/J	.
8d/L	.
8B/J	.
12c/L	.
12e-/	.
12g/J	.
=32	=32
4.b\	1C:maj
16cc\LL	.
16cc#\JJ	.
8dd/L	.
[8g/J	.
4g/]}	.
=33	=33
1r	1C:dom
=34	=34
4r	1D:dom
8r	.
{8d/	.
12f/L	.
12a/	.
12cc/J	.
8ee\L	.
[8dd\J	.
=35	=35
4dd\]	1G:dom
24cc\LL	.
24dd\	.
24cc\JJ	.
8a/	.
8b/L	.
8a-/	.
8f/	.
8f#/J	.
=36	=36
8g/L	1C:dom
8e-/J	.
12en/L	.
12g/	.
12b/J	.
8dd\L	.
[8cc\J	.
4cc\]}	.
=37	=37
2r	2D:min
2r	2G:dom
=38	=38	!!Chorus 3
*>solo3	*>solo3
{4g/	1C:dom
8e/L	.
8f/J	.
8g/L	.
8cc/	.
8b/	.
8a/J	.
=39||	=39||
8g/L	2D:dom
8f/	.
8d/	.
8A/J	.
4e/	2G:dom
8g/L	.
[8d/J	.
=40	=40
8d/L]	1C:dom
8c/J	.
[4e/	.
8e/L]	.
[8f/J	.
4f/_	.
=41	=41
8f/L]	2G:min
[8e/	.
8e/]	.
[8B-/J	.
8B-/L]	2C:dom
[8d/	.
8d/]	.
[8c/J	.
=42	=42
8c/L]	1F:dom
8B-/	.
8A/	.
8c/J	.
8g/L	.
8f/	.
8c/	.
8A/J	.
=43	=43
8d/L	1F:dom
[8e-/J	.
4e-/]}	.
2r	.
=44	=44
2r	1C:dom
{8gg\L	.
16gg-\L	.
16ff\J	.
8ee\	.
8dd\J	.
=45	=45
8dd-/L	1A:dom
8e/	.
8g/	.
8a/J	.
8b-\L	.
16cc\L	.
16b-\J	.
8a\	.
8e\J	.
=46	=46
8g/L	1D:min
8f/J	.
12c/L	.
12A/	.
12F/J	.
8e/L	.
[8d/J	.
4d/]}	.
=47	=47
4r	1G:dom
{24c/LL	.
24d/	.
24c/JJ	.
8A/	.
8B/L	.
8a-/	.
8f/	.
8f#/J	.
=48	=48
4g/}	1C:dom
4r	.
2r	.
=49	=49
4r	2D:min
{24cc\LL	.
24dd\	.
24cc\JJ	.
8b\	.
8dd\L	2G:dom
8cc\	.
8b\	.
8a\J	.
=50	=50
8g/L	1C:dom
[8e/J	.
4e/]}	.
2r	.
==	==
*-	*-
